X:468
T:Daisy Daisy
M:3/4
L:1/4
K:G
d3 | B3 | G3 | D3 | EFG | E2 G | 
D3- | D2 G | A3 | d3 | B3 | G3 | 
EFG | A2 B | A3- | A2 B | cBA | d2 B | 
A G2- | G2 A | B2 G | E2 G | E D2- | D2 D | 
G2 B | A2 D | G2 B | ABc | dBG | A2 F | G3- | G2 | 

